brandFactory_export/3.Masa/Comprar datos_3Masa.svg

<?xml version="1.0" encoding="UTF-8"?>
<svg width="24px" height="24px" viewBox="0 0 24 24" version="1.1" xmlns="http://www.w3.org/2000/svg" xmlns:xlink="http://www.w3.org/1999/xlink">
    <title>3.Masa/Comprar datos_3Masa</title>
    <g id="Symbols" stroke="none" stroke-width="1" fill="none" fill-rule="evenodd">
        <g id="3.Masa/Comprar-datos_3Masa" fill="#5CB615" fill-rule="nonzero">
            <path d="M10.1647059,19.6537815 C9.56302521,19.6537815 9.08235294,19.8252101 8.73277311,20.1613445 C8.36638655,20.5142857 8.18151261,21.0084034 8.18151261,21.6369748 C8.18151261,22.2655462 8.36638655,22.7596639 8.73277311,23.112605 C9.08235294,23.4487395 9.56638655,23.6201681 10.1647059,23.6201681 C10.7630252,23.6201681 11.2470588,23.4487395 11.5966387,23.112605 C11.9630252,22.7596639 12.1478992,22.2655462 12.1478992,21.6369748 C12.1478992,21.0084034 11.9630252,20.5142857 11.5966387,20.1613445 C11.2470588,19.8252101 10.7663866,19.6537815 10.1647059,19.6537815 Z M16.7193277,19.6537815 C16.1176471,19.6537815 15.6369748,19.8252101 15.287395,20.1613445 C14.9210084,20.5142857 14.7361345,21.0084034 14.7361345,21.6369748 C14.7361345,22.2655462 14.9210084,22.7596639 15.287395,23.112605 C15.6369748,23.4487395 16.1210084,23.6201681 16.7193277,23.6201681 C17.3176471,23.6201681 17.8016807,23.4487395 18.1512605,23.112605 C18.5142857,22.7596639 18.702521,22.2655462 18.702521,21.6369748 C18.702521,21.0084034 18.5176471,20.5142857 18.1512605,20.1613445 C17.8016807,19.8252101 17.3210084,19.6537815 16.7193277,19.6537815 Z M23.4554622,5.81848739 C23.3277311,5.65378151 23.1327731,5.55966387 22.9243697,5.55966387 L18.8436975,5.55966387 L18.8436975,4.13109244 C18.8436975,3.55966387 18.3394958,3.11596639 17.3411765,2.81680672 C16.5579832,2.58151261 15.5226891,2.45042017 14.4336134,2.45042017 C13.3445378,2.45042017 12.3092437,2.58151261 11.5260504,2.81680672 C10.5277311,3.11596639 10.0235294,3.55966387 10.0235294,4.13109244 L10.0235294,5.55966387 L6.11764706,5.55966387 C5.85882353,4.05378151 5.65042017,2.8605042 5.58991597,2.53445378 C5.32773109,1.07226891 3.94957983,0.0134453782 2.30588235,0.0134453782 L0.685714286,0.0134453782 C0.315966387,0.0134453782 0.0134453782,0.315966387 0.0134453782,0.685714286 C0.0134453782,1.05546218 0.315966387,1.35798319 0.685714286,1.35798319 L2.3092437,1.35798319 C3.28403361,1.35798319 4.12436975,1.96638655 4.26890756,2.7697479 C4.45042017,3.78487395 6.06386555,13.1327731 6.23193277,14.2016807 C6.42689076,15.4319328 6.88403361,16.3966387 7.59663866,17.0689076 C8.27563025,17.7109244 9.1697479,18.0470588 10.1747899,18.0470588 L17.6806723,18.0470588 C18.6756303,18.0470588 19.5193277,17.707563 20.1915966,17.0386555 C20.8268908,16.4033613 21.2907563,15.4957983 21.610084,14.2689076 C21.7512605,13.7210084 22.2184874,11.8487395 22.6689076,10.0336134 C23.0420168,8.54117647 23.3915966,7.12941176 23.5764706,6.4 C23.6268908,6.19495798 23.5831933,5.98319328 23.4554622,5.81848739 Z M12.0168067,3.72436975 C12.6823529,3.55294118 13.5394958,3.45882353 14.4302521,3.45882353 C15.3210084,3.45882353 16.1781513,3.55294118 16.8436975,3.72436975 C17.4588235,3.88235294 17.707563,4.05042017 17.7983193,4.13109244 L17.794958,4.13445378 L17.7915966,4.13781513 L17.7815126,4.14453782 L17.7781513,4.14789916 C17.7714286,4.15462185 17.7613445,4.16134454 17.7512605,4.16806723 L17.7478992,4.17142857 L17.7344538,4.18151261 L17.7310924,4.18487395 L17.7176471,4.19495798 L17.7109244,4.19831933 L17.697479,4.20840336 L17.6941176,4.21176471 C17.6806723,4.21848739 17.6672269,4.22857143 17.6537815,4.23865546 L17.6470588,4.24201681 L17.6302521,4.25210084 L17.6201681,4.25546218 L17.6033613,4.26554622 L17.5932773,4.27226891 L17.5731092,4.28235294 L17.5663866,4.28571429 L17.5394958,4.29915966 L17.5327731,4.30252101 L17.5092437,4.31596639 L17.4991597,4.32268908 L17.4789916,4.33277311 L17.4655462,4.3394958 L17.4453782,4.33613445 L17.4319328,4.34285714 L17.405042,4.35294118 L17.394958,4.35630252 L17.3546218,4.37310924 L17.3411765,4.37647059 L17.3109244,4.38655462 L17.2941176,4.39327731 L17.2672269,4.40336134 L17.2504202,4.41008403 L17.2201681,4.42016807 L17.2033613,4.42689076 L17.1663866,4.44033613 L17.1529412,4.44369748 L17.102521,4.4605042 L17.0857143,4.46722689 L17.0487395,4.47731092 L17.0285714,4.48403361 L16.9915966,4.49411765 L16.9680672,4.50084034 L16.9277311,4.51092437 L16.907563,4.51764706 L16.8436975,4.53445378 C16.1781513,4.70588235 15.3210084,4.8 14.4302521,4.8 C13.5394958,4.8 12.6823529,4.70588235 12.0168067,4.53445378 L11.9529412,4.51764706 L11.9327731,4.51092437 L11.892437,4.50084034 L11.8689076,4.49411765 L11.8319328,4.48403361 L11.8117647,4.47731092 L11.7747899,4.46722689 L11.7579832,4.4605042 L11.707563,4.44369748 L11.6941176,4.44033613 L11.6571429,4.42689076 L11.6403361,4.42016807 L11.610084,4.41008403 L11.5932773,4.40336134 L11.5663866,4.39327731 L11.5495798,4.38655462 L11.5193277,4.37647059 L11.5058824,4.37310924 L11.4655462,4.35630252 L11.4554622,4.35294118 L11.4285714,4.34285714 L11.4151261,4.33613445 L11.394958,4.32605042 L11.3815126,4.31932773 L11.3613445,4.3092437 L11.3512605,4.30252101 L11.3277311,4.29243697 L11.3210084,4.28907563 L11.2907563,4.27563025 L11.2840336,4.27226891 L11.2638655,4.26218487 L11.2537815,4.25546218 L11.2369748,4.24537815 L11.2268908,4.24201681 L11.210084,4.23193277 L11.2033613,4.22857143 C11.189916,4.21848739 11.1731092,4.21176471 11.1630252,4.20168067 L11.1596639,4.19831933 L11.1462185,4.18823529 L11.1394958,4.18487395 L11.1260504,4.17478992 L11.1226891,4.17142857 L11.1092437,4.16134454 L11.1058824,4.15798319 C11.0957983,4.1512605 11.0890756,4.14453782 11.0789916,4.13781513 L11.0756303,4.13445378 L11.0655462,4.12773109 L11.0621849,4.12436975 L11.0588235,4.1210084 C11.1529412,4.04705882 11.4016807,3.88235294 12.0168067,3.72436975 L12.0168067,3.72436975 Z M17.8352941,13.4756303 C17.7915966,13.5260504 17.5798319,13.7277311 16.8436975,13.9193277 C16.1781513,14.0907563 15.3210084,14.1848739 14.4302521,14.1848739 C13.5394958,14.1848739 12.6823529,14.0907563 12.0168067,13.9193277 C11.2806723,13.7310924 11.0722689,13.5294118 11.0252101,13.4756303 L11.0252101,11.5226891 L11.0386555,11.5294118 C11.0655462,11.5428571 11.0957983,11.5529412 11.1226891,11.5630252 L11.1495798,11.5731092 C11.1831933,11.5865546 11.2201681,11.6 11.2571429,11.6134454 L11.2705882,11.6168067 C11.3042017,11.6302521 11.3378151,11.6403361 11.3714286,11.6504202 L11.4016807,11.6605042 C11.4420168,11.6739496 11.4789916,11.687395 11.5193277,11.697479 C12.302521,11.9327731 13.3378151,12.0638655 14.4268908,12.0638655 C15.5159664,12.0638655 16.5546218,11.9361345 17.3378151,11.7008403 C17.3781513,11.687395 17.4184874,11.6773109 17.4554622,11.6638655 L17.4857143,11.6537815 C17.5193277,11.6436975 17.5529412,11.6302521 17.5865546,11.6201681 L17.6,11.6168067 C17.6369748,11.6033613 17.6705882,11.589916 17.707563,11.5764706 L17.7344538,11.5663866 C17.7647059,11.5563025 17.7915966,11.5428571 17.8184874,11.5327731 L17.8319328,11.5260504 L17.8352941,13.4756303 L17.8352941,13.4756303 Z M17.8352941,10.3495798 L17.8285714,10.3563025 L17.8252101,10.3596639 L17.8252101,10.3630252 L17.8184874,10.3697479 L17.8151261,10.3731092 L17.8084034,10.3798319 L17.805042,10.3831933 L17.7983193,10.389916 L17.794958,10.3932773 L17.7882353,10.4 L17.7848739,10.4033613 L17.7781513,10.410084 L17.7714286,10.4134454 L17.7613445,10.4201681 L17.7546218,10.4235294 L17.7445378,10.4302521 L17.7378151,10.4336134 L17.7277311,10.4403361 L17.7210084,10.4470588 L17.7109244,10.4537815 L17.7008403,10.4605042 L17.6907563,10.4672269 L17.6806723,10.4739496 L17.6672269,10.4806723 L17.6571429,10.487395 L17.6436975,10.4941176 L17.6336134,10.5008403 L17.6201681,10.507563 L17.6067227,10.5142857 L17.5932773,10.5210084 L17.5798319,10.5277311 L17.5630252,10.5344538 L17.5462185,10.5411765 L17.5294118,10.5478992 L17.512605,10.5546218 L17.4957983,10.5613445 L17.4789916,10.5714286 L17.4621849,10.5781513 L17.4420168,10.5882353 L17.4218487,10.594958 L17.4016807,10.605042 L17.3815126,10.6117647 L17.3579832,10.6218487 L17.3378151,10.6285714 L17.3142857,10.6386555 L17.2907563,10.6453782 L17.2638655,10.6554622 L17.2403361,10.6655462 L17.2134454,10.6756303 L17.189916,10.6857143 L17.1630252,10.6957983 L17.1394958,10.702521 L17.1092437,10.712605 L17.0756303,10.7226891 L17.0420168,10.7327731 L17.0117647,10.7428571 L16.9781513,10.7529412 L16.9378151,10.7630252 L16.9109244,10.7697479 L16.8436975,10.7865546 C16.1781513,10.9579832 15.3210084,11.0521008 14.4302521,11.0521008 C13.5394958,11.0521008 12.6823529,10.9579832 12.0168067,10.7865546 L11.9495798,10.7697479 L11.9226891,10.7630252 L11.8823529,10.7529412 L11.8487395,10.7428571 L11.8184874,10.7327731 L11.7848739,10.7226891 L11.7579832,10.7159664 L11.7277311,10.7058824 L11.7042017,10.6991597 L11.6773109,10.6890756 L11.6537815,10.6789916 L11.6268908,10.6689076 L11.6033613,10.6588235 L11.5764706,10.6487395 L11.5529412,10.6420168 L11.5294118,10.6319328 L11.5092437,10.6252101 L11.4857143,10.6151261 L11.4655462,10.6084034 L11.4453782,10.5983193 L11.4252101,10.5915966 L11.405042,10.5815126 L11.3882353,10.5747899 L11.3714286,10.5647059 L11.3546218,10.5579832 L11.3378151,10.5512605 L11.3210084,10.5445378 L11.3042017,10.5378151 L11.287395,10.5310924 L11.2739496,10.5243697 L11.2605042,10.5176471 L11.2470588,10.5109244 L11.2336134,10.5042017 L11.2201681,10.497479 L11.2067227,10.4907563 L11.1966387,10.4840336 L11.1831933,10.4773109 L11.1731092,10.4705882 L11.1596639,10.4638655 L11.1495798,10.4571429 L11.1394958,10.4504202 L11.1327731,10.4436975 L11.1226891,10.4369748 L11.1159664,10.4336134 L11.1058824,10.4268908 L11.0991597,10.4235294 L11.0890756,10.4168067 L11.0857143,10.4134454 L11.0789916,10.4067227 L11.0756303,10.4033613 L11.0689076,10.3966387 L11.0655462,10.3932773 L11.0588235,10.3865546 L11.0554622,10.3831933 L11.0487395,10.3764706 L11.0453782,10.3731092 L11.0386555,10.3663866 L11.0386555,10.3630252 L11.0352941,10.3596639 L11.0319328,10.3563025 L11.0285714,10.3529412 L11.0285714,8.39663866 L11.0420168,8.40336134 C11.0689076,8.41680672 11.0991597,8.42689076 11.1260504,8.43697479 L11.1529412,8.44705882 C11.1865546,8.4605042 11.2235294,8.47394958 11.2605042,8.48739496 L11.2739496,8.4907563 C11.307563,8.50420168 11.3411765,8.51428571 11.3747899,8.52436975 L11.405042,8.53445378 C11.4453782,8.54789916 11.4823529,8.56134454 11.5226891,8.57142857 C12.3058824,8.80672269 13.3411765,8.93781513 14.4336134,8.93781513 C15.5260504,8.93781513 16.5546218,8.81008403 17.3378151,8.57478992 C17.3781513,8.56134454 17.4184874,8.5512605 17.4554622,8.53781513 L17.4857143,8.52773109 C17.5193277,8.51764706 17.5529412,8.50420168 17.5865546,8.49411765 L17.6,8.4907563 C17.6369748,8.47731092 17.6705882,8.46386555 17.707563,8.45042017 L17.7344538,8.44033613 C17.7647059,8.4302521 17.7915966,8.41680672 17.8184874,8.40672269 L17.8319328,8.4 L17.8352941,10.3495798 L17.8352941,10.3495798 Z M17.8352941,7.22352941 L17.8285714,7.2302521 L17.8252101,7.23361345 L17.8252101,7.23697479 L17.8184874,7.24369748 L17.8151261,7.24705882 L17.8084034,7.25378151 L17.805042,7.25714286 L17.7983193,7.26386555 L17.794958,7.26722689 L17.7882353,7.27394958 L17.7848739,7.27731092 L17.7781513,7.28403361 L17.7714286,7.28739496 L17.7613445,7.29411765 L17.7546218,7.29747899 L17.7445378,7.30420168 L17.7378151,7.30756303 L17.7277311,7.31428571 L17.7210084,7.3210084 L17.7109244,7.32773109 L17.7008403,7.33445378 L17.6907563,7.34117647 L17.6806723,7.34789916 L17.6672269,7.35462185 L17.6571429,7.36134454 L17.6436975,7.36806723 L17.6336134,7.37478992 L17.6201681,7.38151261 L17.6067227,7.38823529 L17.5932773,7.39495798 L17.5798319,7.40168067 L17.5630252,7.40840336 L17.5462185,7.41512605 L17.5294118,7.42184874 L17.512605,7.42857143 L17.4957983,7.43529412 L17.4789916,7.44537815 L17.4621849,7.45210084 L17.4420168,7.46218487 L17.4218487,7.46890756 L17.4016807,7.4789916 L17.3815126,7.48571429 L17.3579832,7.49579832 L17.3378151,7.50252101 L17.3142857,7.51260504 L17.2907563,7.51932773 L17.2638655,7.52941176 L17.2403361,7.5394958 L17.2134454,7.54957983 L17.189916,7.55966387 L17.1630252,7.5697479 L17.1394958,7.57647059 L17.1092437,7.58655462 L17.0823529,7.59327731 L17.0487395,7.60336134 L17.0184874,7.61344538 L16.9848739,7.62352941 L16.9445378,7.63361345 L16.9176471,7.64033613 L16.8504202,7.65714286 C16.1848739,7.82857143 15.3277311,7.92268908 14.4369748,7.92268908 C13.5462185,7.92268908 12.6890756,7.82857143 12.0235294,7.65714286 L11.9563025,7.64033613 L11.9294118,7.63361345 L11.8890756,7.62352941 L11.8554622,7.61344538 L11.8252101,7.60336134 L11.7915966,7.59327731 L11.7647059,7.58655462 L11.7344538,7.57647059 L11.7109244,7.5697479 L11.6840336,7.55966387 L11.6605042,7.54957983 L11.6336134,7.5394958 L11.610084,7.52941176 L11.5831933,7.51932773 L11.5596639,7.51260504 L11.5361345,7.50252101 L11.5159664,7.49579832 L11.492437,7.48571429 L11.4722689,7.4789916 L11.4521008,7.46890756 L11.4319328,7.46218487 L11.4117647,7.45210084 L11.394958,7.44537815 L11.3781513,7.43529412 L11.3613445,7.42857143 L11.3445378,7.42184874 L11.3277311,7.41512605 L11.3109244,7.40840336 L11.2941176,7.40168067 L11.2806723,7.39495798 L11.2672269,7.38823529 L11.2537815,7.38151261 L11.2403361,7.37478992 L11.2268908,7.36806723 L11.2134454,7.36134454 L11.2033613,7.35462185 L11.189916,7.34789916 L11.1798319,7.34117647 L11.1663866,7.33445378 L11.1563025,7.32773109 L11.1462185,7.3210084 L11.1394958,7.31428571 L11.1294118,7.30756303 L11.1226891,7.30420168 L11.112605,7.29747899 L11.1058824,7.29411765 L11.0957983,7.28739496 L11.092437,7.28403361 L11.0857143,7.27731092 L11.0823529,7.27394958 L11.0756303,7.26722689 L11.0722689,7.26386555 L11.0655462,7.25714286 L11.0621849,7.25378151 L11.0554622,7.24705882 L11.0521008,7.24369748 L11.0453782,7.23697479 L11.0453782,7.23361345 L11.0420168,7.2302521 L11.0386555,7.22689076 L11.0352941,7.22352941 L11.0352941,5.26722689 L11.0487395,5.27394958 C11.0756303,5.28403361 11.1058824,5.29747899 11.1327731,5.30756303 L11.1596639,5.31764706 C11.1932773,5.33109244 11.2302521,5.34453782 11.2672269,5.35798319 L11.2806723,5.36134454 C11.3142857,5.37478992 11.3478992,5.38487395 11.3815126,5.39495798 L11.4117647,5.40504202 C11.4521008,5.41848739 11.4890756,5.43193277 11.5294118,5.44201681 C12.312605,5.67731092 13.3478992,5.80840336 14.4403361,5.80840336 C15.5327731,5.80840336 16.5647059,5.67731092 17.3478992,5.44201681 C17.3882353,5.42857143 17.4285714,5.41848739 17.4655462,5.40504202 L17.4957983,5.39495798 C17.5294118,5.38487395 17.5630252,5.37142857 17.5966387,5.36134454 L17.610084,5.35798319 C17.6470588,5.34453782 17.6806723,5.33109244 17.7176471,5.31764706 L17.7445378,5.30756303 C17.7747899,5.29747899 17.8016807,5.28403361 17.8285714,5.27394958 L17.8420168,5.26722689 L17.8352941,7.22352941 L17.8352941,7.22352941 Z" id="Comprar-datos_3Masa"></path>
        </g>
    </g>
</svg>

<svg width="24" height="24" viewBox="0 0 24 24" xmlns="http://www.w3.org/2000/svg"><path d="M10.165 19.654c-.602 0-1.083.171-1.432.507-.367.353-.551.847-.551 1.476s.184 1.123.55 1.476c.35.336.834.507 1.433.507.598 0 1.082-.171 1.432-.507.366-.353.55-.847.55-1.476s-.184-1.123-.55-1.476c-.35-.336-.83-.507-1.432-.507zm6.554 0c-.601 0-1.082.171-1.432.507-.366.353-.55.847-.55 1.476s.184 1.123.55 1.476c.35.336.834.507 1.432.507.599 0 1.083-.171 1.432-.507.363-.353.552-.847.552-1.476s-.185-1.123-.552-1.476c-.35-.336-.83-.507-1.432-.507zm6.736-13.836a.669.669 0 00-.53-.258h-4.081V4.13c0-.571-.505-1.015-1.503-1.314-.783-.235-1.818-.367-2.907-.367-1.09 0-2.125.132-2.908.367-.998.299-1.502.743-1.502 1.314V5.56H6.118c-.26-1.506-.468-2.7-.528-3.026C5.328 1.072 3.95.014 2.306.014H.686a.674.674 0 00-.673.672c0 .37.303.672.673.672h1.623c.975 0 1.815.608 1.96 1.412.181 1.015 1.795 10.363 1.963 11.432.195 1.23.652 2.195 1.365 2.867.679.642 1.573.978 2.578.978h7.506c.995 0 1.838-.34 2.51-1.008.636-.636 1.1-1.543 1.42-2.77.14-.548.607-2.42 1.058-4.235.373-1.493.723-2.905.907-3.634a.678.678 0 00-.12-.582zM12.017 3.724c.665-.171 1.522-.265 2.413-.265.891 0 1.748.094 2.414.265.615.158.864.326.954.407l-.003.003-.003.004-.01.007-.004.003c-.007.007-.017.013-.027.02l-.003.003-.014.01-.003.004-.013.01-.007.003-.014.01-.003.004c-.013.006-.027.017-.04.027l-.007.003-.017.01-.01.003-.017.01-.01.007-.02.01-.007.004-.027.013-.006.004-.024.013-.01.007-.02.01-.013.006-.02-.003-.014.007-.027.01-.01.003-.04.017-.014.003-.03.01-.017.007-.027.01-.017.007-.03.01-.017.007-.037.013-.013.004-.05.017-.017.006-.037.01-.02.007-.037.01-.024.007-.04.01-.02.007-.064.016c-.666.172-1.523.266-2.414.266-.89 0-1.748-.094-2.413-.266l-.064-.016-.02-.007-.04-.01-.024-.007-.037-.01-.02-.007-.037-.01-.017-.006-.05-.017-.014-.004-.037-.013-.017-.007-.03-.01-.017-.007-.027-.01-.016-.006-.03-.01-.014-.004-.04-.017-.01-.003-.027-.01-.014-.007-.02-.01-.013-.007-.02-.01-.01-.006-.024-.01-.007-.004-.03-.013-.007-.004-.02-.01-.01-.007-.017-.01-.01-.003-.017-.01-.007-.003c-.013-.01-.03-.017-.04-.027l-.003-.004-.014-.01-.007-.003-.013-.01-.003-.004-.014-.01-.003-.003-.027-.02-.003-.004-.01-.006-.004-.004-.003-.003c.094-.074.343-.239.958-.397zm5.818 9.752c-.043.05-.255.252-.991.443-.666.172-1.523.266-2.414.266-.89 0-1.748-.094-2.413-.266-.736-.188-.945-.39-.992-.443v-1.953l.014.006c.027.014.057.024.084.034l.027.01c.033.014.07.027.107.04l.014.004c.033.013.067.023.1.033l.03.01c.041.014.078.027.118.037.784.236 1.819.367 2.908.367s2.128-.128 2.91-.363c.041-.014.081-.024.118-.037l.03-.01c.034-.01.068-.024.102-.034l.013-.003c.037-.014.07-.027.108-.04l.026-.01c.03-.01.058-.024.084-.034l.014-.007.003 1.95zm0-3.126l-.006.006-.004.004v.003l-.007.007-.003.003-.007.007-.003.003-.007.007-.003.003-.007.007-.003.003-.007.007-.007.003-.01.007-.006.004-.01.006-.007.004-.01.006-.007.007-.01.007-.01.007-.01.006-.01.007-.014.007-.01.006-.013.007-.01.007-.014.007-.013.006-.014.007-.013.007-.017.006-.017.007-.017.007-.016.007-.017.006-.017.01-.017.007-.02.01-.02.007-.02.01-.02.007-.024.01-.02.007-.024.01-.023.006-.027.01-.024.01-.027.01-.023.01-.027.01-.024.008-.03.01-.033.01-.034.01-.03.01-.034.01-.04.01-.027.007-.067.017c-.666.171-1.523.265-2.414.265-.89 0-1.748-.094-2.413-.265l-.067-.017-.027-.007-.04-.01-.034-.01-.03-.01-.034-.01-.027-.007-.03-.01-.024-.007-.027-.01-.023-.01-.027-.01-.024-.01-.027-.01-.023-.007-.024-.01-.02-.007-.023-.01-.02-.007-.02-.01-.02-.006-.021-.01-.017-.007-.017-.01-.016-.007-.017-.007-.017-.006-.017-.007-.017-.007-.013-.007-.013-.006-.014-.007-.013-.007-.014-.007-.013-.006-.01-.007-.014-.007-.01-.006-.013-.007-.01-.007-.01-.007-.007-.006-.01-.007-.007-.003-.01-.007-.007-.003-.01-.007-.003-.004-.007-.006-.003-.004-.007-.006-.003-.004-.007-.006-.004-.004-.006-.007-.004-.003-.006-.007v-.003l-.004-.003-.003-.004-.003-.003V8.397l.013.006c.027.014.057.024.084.034l.027.01c.034.014.07.027.108.04l.013.004c.034.013.067.023.1.033l.031.01c.04.014.077.027.118.037.783.236 1.818.367 2.91.367 1.093 0 2.122-.128 2.905-.363.04-.014.08-.024.117-.037l.03-.01c.034-.01.068-.024.102-.034l.013-.003c.037-.014.07-.027.108-.04l.026-.01c.03-.01.058-.024.084-.034l.014-.007.003 1.95zm0-3.126l-.006.006-.004.004v.003l-.007.007-.003.003-.007.007-.003.003-.007.007-.003.003-.007.007-.003.003-.007.007-.007.003-.01.007-.006.003-.01.007-.007.004-.01.006-.007.007-.01.007-.01.006-.01.007-.01.007-.014.007-.01.006-.013.007-.01.007-.014.007-.013.006-.014.007-.013.007-.017.006-.017.007-.017.007-.016.007-.017.006-.017.01-.017.007-.02.01-.02.007-.02.01-.02.007-.024.01-.02.007-.024.01-.023.006-.027.01-.024.01-.027.01-.023.01-.027.01-.024.007-.03.01-.027.007-.033.01-.03.01-.034.01-.04.01-.027.007-.068.017c-.665.172-1.522.266-2.413.266-.89 0-1.748-.094-2.413-.266l-.068-.017-.027-.006-.04-.01-.034-.01-.03-.01-.033-.01-.027-.007-.03-.01-.024-.007-.027-.01-.023-.01-.027-.01-.024-.01-.027-.01-.023-.007-.024-.01-.02-.007-.024-.01-.02-.007-.02-.01-.02-.007-.02-.01-.017-.007-.017-.01-.017-.006-.016-.007-.017-.007-.017-.007-.017-.006-.013-.007-.014-.007-.013-.006-.014-.007-.013-.007-.014-.007-.01-.006-.013-.007-.01-.007-.014-.007-.01-.006-.01-.007-.007-.007-.01-.006-.006-.004-.01-.007-.007-.003-.01-.007-.004-.003-.006-.007-.004-.003-.006-.007-.004-.003-.006-.007-.004-.003-.007-.007-.003-.003-.007-.007v-.003l-.003-.004-.003-.003-.004-.003V5.267l.014.007.084.034.027.01.107.04.014.003c.033.014.067.024.1.034l.03.01c.041.013.078.027.118.037.784.235 1.819.366 2.911.366 1.093 0 2.125-.13 2.908-.366.04-.013.08-.024.118-.037l.03-.01c.033-.01.067-.024.1-.034l.014-.003c.037-.013.07-.027.108-.04l.027-.01c.03-.01.057-.024.084-.034l.013-.007-.007 1.957z" fill="#5CB615" fill-rule="nonzero"/></svg>
